X:1
T:Awake and Watch
T:Ira David Sankey
T:Awake and Watch
T:Public Domain
T:Public Domain
T:Public Domain
C:Ira David Sankey
Z:Public Domain
%%score ( 1 2 ) ( 3 4 )
L:1/8
M:9/8
K:Eb
V:1 treble 
V:2 treble 
V:3 bass 
V:4 bass 
V:1
 B, [B,E]2 [EG] | [GB]3- [GB]2 [GB] ([Ac][GB])[^F=A] | [GB]3 [EG]2 E [EG]2 [EA] | %3
w: 1.~A- wake and|the * light is * dawn-|ing; A- wake! the night|
w: 2.~The Day Star|o’er * all is * shin-|ing— A- wake and hail|
w: 3.~There waits for|a * heaven- ly * greet-|ing; Haste then, thy Mas-|
w: 4.~The King! the|the * call comes * ring-|ing; O Church of Christ!|
 [EG]3- [EG]2 [B,E] (FE)[B,D] | [B,E]3- [B,E]2 B, [B,E]2 [EG] | [GB]3- [GB]2 [EB] (cB)[E=A] | %6
w: soon * be gone; * In|rient * sky there gleams|morn- * ing— A- * rise,|
w: com- * ing day! * Re-|thy * strength, cease all|pin- * ing, A- * wake,|
w: call * o- bey; * Soon,|shall * end thy night|weep- * ing; Thy * God|
w: Zi- * on free! * Look|and * join the heaven-|sing- * ing; Thy * King|
 [EB]3 [EG]2 [Ee] [Fd]2 [Fc] | [Ff]2 [Fd] [DB]3 [Ec]3 | [DB]3- [DB]2 ||"^Refrain" [EB] [EB]2 [Ec] | %10
w: gird thine ar- mor on.||||
w: rise, and watch and pray.|A- wake! the night|will *|soon be gone;|
w: wipe thy tears a- way.||||
w: com- ing soon for thee.||||
 [DB]3- [DB]2 [Af] [Ge]2 [Fd] | [Ee]3- [Ee]2 [Ee] [Ee]2 [Ac] | [GB]3- [GB]2 [EG] [DF]2 [FA] | %13
w: |||
w: A- * rise and gird|thine * ar- mor on!|A- * wake! the night|
w: |||
w: |||
 [EG]3- [EG]2 [EB] [EB]2 [Ec] | [DB]3- [DB]2 [Af] [Ge]2 [Fd] | [Ee]3- [Ee]2 [Ee] [Ee]2 [Ec] | %16
w: |||
w: will * soon be gone;|A- * rise and gird|thine * ar- mor on!|
w: |||
w: |||
 [EB]3- [EB]2 [EG] [DG]2 [DF] | E3- E2 |] %18
w: ||
w: ||
w: ||
w: ||
V:2
 B, x3 | x9 | x5 E x3 | x6 B,2 x | x5 B, x3 | x6 E2 x | x9 | x9 | x5 || x4 | x9 | x9 | x9 | x9 | %14
w: watch!||will|O-|the|and|||||||||
w: bright||the|new|re-|a-|||||||||
w: thee||ter’s|soon|of|shall|||||||||
w: King!||O|up|ly|is|||||||||
 x9 | x9 | x9 | E3- E2 |] %18
w: ||||
w: ||||
w: ||||
w: ||||
V:3
 [E,G,] [E,G,]2 [E,B,] | [E,E]3- [E,E]2 [E,E] [E,E]2 [E,C] | [E,E]3 [E,B,]2 [E,G,] [E,B,]2 [A,,C] | %3
 [B,,B,]3- [B,,B,]2 [B,,G,] (A,G,)[B,,F,] | [E,G,]3- [E,G,]2 [E,G,] [E,G,]2 [E,B,] | %5
 [E,E]3- [E,E]2 [E,G,] (A,G,)[E,^F,] | [E,G,]3 [E,B,]2 [C,C] [F,=A,]2 [E,A,] | %7
 [D,B,]2 [B,,B,] [F,B,]3 [F,=A,]3 | [B,,B,]3- [B,,B,]2 || [E,G,] [E,G,]2 [E,G,] | %10
 [B,,-F,]3 [B,,B,]2 [B,,B,] [B,,B,]2 [B,,A,] | [C,G,]3- [C,G,]2 [A,,C] [A,,C]2 [A,,E] | %12
 [B,,E]3- [B,,E]2 [B,,B,] [B,,B,]2 [B,,B,] | [E,B,]3- [E,B,]2 [E,G,] [E,G,]2 [E,G,] | %14
 [B,,-F,]3 [B,,B,]2 [B,,B,] [B,,B,]2 [B,,A,] | [C,G,]3- [C,G,]2 [A,,C] [A,,C]2 [A,,A,] | %16
 [B,,G,]3- [B,,G,]2 [B,,=A,] [B,,B,]2 [B,,_A,] | [E,G,]3- [E,G,]2 |] %18
V:4
 x4 | x9 | x9 | x6 B,,2 x | x9 | x6 E,2 x | x9 | x9 | x5 || x4 | x9 | x9 | x9 | x9 | x9 | x9 | x9 | %17
 x5 |] %18

